X:223
T:The Jig's Up
R:jig
C:Bruce Osborne - Dec. 1997
Z:abc by bosborne@kos.net
M:6/8
L:1/8
K:Amaj
A/B/|cAA EAE|CEC A,CE|GBe gfe|gbg gfe|\
cAA EAE|CEC A,CE|GBe gfe|dcB A2:|
|:z|A,CE Ace|ac'a aec|EGB dcB|Acf ece|\
A,CE Ace|agf ece|gfe dcB|A3 A2:|
